packages/dnb-eufemia/assets/icons/account_card_medium.svg

<svg width="24" height="24" viewBox="0 0 24 24" fill="none" xmlns="http://www.w3.org/2000/svg">
<path d="M11.6222 9.75L12.0708 9.14895L11.8712 9H11.6222V9.75ZM5.62781 9.75V9H5.37879L5.17922 9.14895L5.62781 9.75ZM5.25 6.75C4.83579 6.75 4.5 7.08579 4.5 7.5C4.5 7.91421 4.83579 8.25 5.25 8.25V6.75ZM12 8.25C12.4142 8.25 12.75 7.91421 12.75 7.5C12.75 7.08579 12.4142 6.75 12 6.75V8.25ZM13.5 0.75L13.9965 1.31217C14.2473 1.09066 14.321 0.729789 14.1772 0.427645C14.0334 0.125501 13.7068 -0.0448082 13.3767 0.0102046L13.5 0.75ZM4.5 2.25L4.3767 1.5102C4.06113 1.5628 3.81366 1.80979 3.76045 2.12526C3.70724 2.44073 3.86 2.75522 4.14086 2.90842L4.5 2.25ZM6 5.25H5.25V6H6V5.25ZM10.875 5.25V6H11.625V5.25H10.875ZM12.5901 11.5444C12.8908 11.8293 13.3655 11.8165 13.6504 11.5158C13.9353 11.2152 13.9225 10.7405 13.6218 10.4556L12.5901 11.5444ZM6.94153 23.9384C7.35448 23.9707 7.71543 23.6621 7.74772 23.2491C7.78001 22.8362 7.47142 22.4752 7.05847 22.4429L6.94153 23.9384ZM11.6222 9H5.62781V10.5H11.6222V9ZM5.17922 9.14895C3.94386 10.071 2.66508 11.2923 1.68835 12.6677C0.717297 14.0352 0 15.6193 0 17.25H1.5C1.5 16.0498 2.03621 14.7686 2.91136 13.5362C3.78085 12.3117 4.94097 11.1985 6.07641 10.3511L5.17922 9.14895ZM5.25 8.25H12V6.75H5.25V8.25ZM13.3767 0.0102046L4.3767 1.5102L4.6233 2.9898L13.6233 1.4898L13.3767 0.0102046ZM4.5 2.25C4.14086 2.90842 4.14051 2.90823 4.14016 2.90804C4.14005 2.90798 4.1397 2.90779 4.13948 2.90767C4.13905 2.90743 4.13863 2.9072 4.13824 2.90698C4.13745 2.90655 4.13675 2.90616 4.13613 2.90582C4.1349 2.90513 4.134 2.90462 4.13343 2.9043C4.1323 2.90365 4.13247 2.90374 4.13385 2.90456C4.13663 2.90621 4.14424 2.9108 4.156 2.91844C4.17959 2.93375 4.21941 2.96102 4.27022 3.00105C4.37226 3.08144 4.51536 3.21077 4.66026 3.39518C4.94383 3.75609 5.25 4.34615 5.25 5.25H6.75C6.75 3.97203 6.30617 3.0621 5.83974 2.46845C5.60964 2.1756 5.37774 1.96401 5.19853 1.82281C5.10871 1.75205 5.03135 1.69835 4.97291 1.6604C4.94365 1.6414 4.91903 1.62628 4.89984 1.61488C4.89024 1.60918 4.88198 1.6044 4.87517 1.60053C4.87176 1.59859 4.86872 1.59688 4.86604 1.59539C4.8647 1.59464 4.86346 1.59395 4.86231 1.59332C4.86173 1.593 4.86118 1.5927 4.86065 1.59241C4.86039 1.59226 4.86001 1.59205 4.85988 1.59198C4.85951 1.59178 4.85914 1.59158 4.5 2.25ZM6 6H10.875V4.5H6V6ZM11.625 5.25C11.625 4.42245 12.1436 3.46821 12.7817 2.63939C13.0873 2.2426 13.3945 1.90722 13.6258 1.67093C13.741 1.55322 13.8363 1.46122 13.9016 1.39966C13.9342 1.36891 13.9593 1.34584 13.9755 1.33104C13.9837 1.32365 13.9896 1.31832 13.9931 1.31515C13.9949 1.31357 13.9961 1.31252 13.9966 1.31202C13.9969 1.31177 13.997 1.31165 13.997 1.31168C13.997 1.31169 13.9969 1.31174 13.9969 1.31182C13.9968 1.31186 13.9967 1.31194 13.9967 1.31196C13.9966 1.31206 13.9965 1.31217 13.5 0.75C13.0035 0.187835 13.0034 0.187957 13.0033 0.188088C13.0032 0.188144 13.003 0.188284 13.0029 0.188395C13.0027 0.188618 13.0024 0.188876 13.002 0.18917C13.0014 0.189758 13.0005 0.190489 12.9996 0.191361C12.9976 0.193105 12.995 0.195415 12.9918 0.198282C12.9854 0.204014 12.9766 0.211975 12.9655 0.22209C12.9433 0.242315 12.912 0.271179 12.8728 0.308078C12.7946 0.381824 12.6847 0.487972 12.5539 0.621685C12.293 0.888234 11.944 1.26876 11.5933 1.72425C10.9189 2.59997 10.125 3.89573 10.125 5.25H11.625ZM13.6218 10.4556C13.1157 9.97603 12.5905 9.53683 12.0708 9.14895L11.1736 10.3511C11.6473 10.7046 12.1275 11.1061 12.5901 11.5444L13.6218 10.4556ZM0 17.25C0 19.1201 0.418984 20.7414 1.58997 21.9345C2.75055 23.1169 4.52448 23.7494 6.94153 23.9384L7.05847 22.4429C4.80947 22.2671 3.4584 21.6967 2.66049 20.8837C1.87299 20.0814 1.5 18.9148 1.5 17.25H0ZM11.25 15H22.25V13.5H11.25V15ZM22.25 22.5H11.25V24H22.25V22.5ZM11 22.25V19.75H9.5V22.25H11ZM11 19.75V15.25H9.5V19.75H11ZM22.5 15.25V19.75H24V15.25H22.5ZM22.5 19.75V22.25H24V19.75H22.5ZM10.25 20.5H23.25V19H10.25V20.5ZM11.25 22.5C11.1119 22.5 11 22.3881 11 22.25H9.5C9.5 23.2165 10.2835 24 11.25 24V22.5ZM22.25 24C23.2165 24 24 23.2165 24 22.25H22.5C22.5 22.3881 22.3881 22.5 22.25 22.5V24ZM22.25 15C22.3881 15 22.5 15.1119 22.5 15.25H24C24 14.2835 23.2165 13.5 22.25 13.5V15ZM11.25 13.5C10.2835 13.5 9.5 14.2835 9.5 15.25H11C11 15.1119 11.1119 15 11.25 15V13.5Z" fill="black"/>
<path d="M7.799 19.5L8.109 19.4999V17.866L7.43 16.989L8.109 16.2424V15H7.628L6.314 16.638V13.2H5V19.5H6.314V18.213L6.638 17.853L7.799 19.5Z" fill="black"/>
</svg>

<svg width="24" height="24" viewBox="0 0 24 24" fill="none" xmlns="http://www.w3.org/2000/svg"><path d="m11.622 9.75.449-.601-.2-.149h-.249v.75Zm-5.994 0V9h-.25l-.199.149.449.601Zm-.378-3a.75.75 0 0 0 0 1.5v-1.5ZM12 8.25a.75.75 0 0 0 0-1.5v1.5Zm1.5-7.5.496.562a.75.75 0 0 0-.62-1.302l.124.74Zm-9 1.5-.123-.74a.75.75 0 0 0-.236 1.398L4.5 2.25Zm1.5 3h-.75V6H6v-.75Zm4.875 0V6h.75v-.75h-.75Zm1.715 6.294a.75.75 0 0 0 1.032-1.088l-1.032 1.088ZM6.942 23.938a.75.75 0 0 0 .116-1.495l-.116 1.495ZM11.622 9H5.628v1.5h5.994V9Zm-6.443.149c-1.235.922-2.514 2.143-3.49 3.519C.716 14.035 0 15.619 0 17.25h1.5c0-1.2.536-2.481 1.411-3.714.87-1.224 2.03-2.338 3.165-3.185L5.18 9.15Zm.071-.899H12v-1.5H5.25v1.5ZM13.377.01l-9 1.5.246 1.48 9-1.5-.246-1.48ZM4.5 2.25l-.36.658-.002-.001-.002-.001-.003-.002A1.564 1.564 0 0 1 4.27 3c.103.081.246.21.391.395.284.361.59.951.59 1.855h1.5c0-1.278-.444-2.188-.91-2.782a3.86 3.86 0 0 0-.641-.645 3.062 3.062 0 0 0-.337-.23h-.001l-.001-.001-.36.658ZM6 6h4.875V4.5H6V6Zm5.625-.75c0-.828.519-1.782 1.157-2.61a11.026 11.026 0 0 1 1.211-1.325l.004-.003L13.5.75a171.156 171.156 0 0 0-.498-.56H13a.82.82 0 0 0-.034.031l-.093.086a12.513 12.513 0 0 0-1.28 1.416c-.674.876-1.468 2.172-1.468 3.526h1.5Zm1.997 5.206a17.389 17.389 0 0 0-1.551-1.307l-.897 1.202c.473.354.954.755 1.416 1.193l1.032-1.088ZM0 17.25c0 1.87.419 3.491 1.59 4.684 1.16 1.183 2.934 1.815 5.352 2.004l.116-1.495c-2.249-.176-3.6-.746-4.398-1.56-.787-.802-1.16-1.968-1.16-3.633H0ZM11.25 15h11v-1.5h-11V15Zm11 7.5h-11V24h11v-1.5ZM11 22.25v-2.5H9.5v2.5H11Zm0-2.5v-4.5H9.5v4.5H11Zm11.5-4.5v4.5H24v-4.5h-1.5Zm0 4.5v2.5H24v-2.5h-1.5Zm-12.25.75h13V19h-13v1.5Zm1 2a.25.25 0 0 1-.25-.25H9.5c0 .966.784 1.75 1.75 1.75v-1.5Zm11 1.5A1.75 1.75 0 0 0 24 22.25h-1.5a.25.25 0 0 1-.25.25V24Zm0-9a.25.25 0 0 1 .25.25H24a1.75 1.75 0 0 0-1.75-1.75V15Zm-11-1.5a1.75 1.75 0 0 0-1.75 1.75H11a.25.25 0 0 1 .25-.25v-1.5Z" fill="#000"/><path d="M5.814 18.213V19H5.5v-5.3h.314v4.513Zm.452-.695-.163.181.601-.748.905-1.128v.226l-.549.604-.282.31.257.332.574.742v.326l-.562-.798-.361-.512-.42.465Z" stroke="#000"/></svg>
